TH1/docu_zero_draw_zero2.svg

<svg xmlns="http://www.w3.org/2000/svg" viewBox="0 0 1200 800" preserveAspectRatio="none" width="1200" height="800">
 <path d="M0,0H1200V800H0Z" style="fill: white;"></path>
 <g>
  <g transform="translate(120,80)">
   <path d="M0,0H960V640H0Z" style="fill: white; stroke: black; stroke-width: 1;"></path>
   <g>
    <path d="M0,640h960M0,560h960M0,480h960M0,400h960M0,320h960M0,240h960M0,160h960M0,80h960M0,0h960" style="stroke: black; stroke-width: 1; stroke-dasharray: 1,2;"></path>
    <path d="M96,0v640M288,0v640M480,0v640M672,0v640M864,0v640" style="stroke: black; stroke-width: 1; stroke-dasharray: 1,2;"></path>
   </g>
   <svg x="0" y="0" overflow="hidden" width="960" height="640" viewBox="0 0 960 640">
    <g>
     <path d="M480,632h72v-32h-72zM480,552h-317v-32h317zM480,472h-88v-32h88zM480,392h10v-32h-10zM480,312h8v-32h-8zM480,232h-162v-32h162zM480,152h-124v-32h124zM480,72h-228v-32h228z" style="fill: blue;"></path>
    </g>
    <g>
     <path d="M480,600h97v-32h-97zM480,520h-290v-32h290zM480,440h-62v-32h62zM480,360h36v-32h-36zM480,280h33v-32h-33zM480,200h-136v-32h136zM480,120h-98v-32h98zM480,40h-202v-32h202z" style="fill: #7d99d1;"></path>
    </g>
   </svg>
   <g>
    <g transform="translate(0,640)">
     <path d="M0,0h960M0,-12v12m48,-12v12m48,-24v24m48,-12v12m48,-12v12m48,-12v12m48,-24v24m48,-12v12m48,-12v12m48,-12v12m48,-24v24m48,-12v12m48,-12v12m48,-12v12m48,-24v24m48,-12v12m48,-12v12m48,-12v12m48,-24v24m48,-12v12m48,-12v12" style="stroke: black; stroke-width: 1;"></path>
     <g font-family="Arial" font-size="28" space="preserve" fill="black" text-anchor="middle">
      <text dy=".8em" transform="translate(96,6)">
       -4
      </text>
      <text dy=".8em" transform="translate(288,6)">
       -2
      </text>
      <text dy=".8em" transform="translate(480,6)">
       0
      </text>
      <text dy=".8em" transform="translate(672,6)">
       2
      </text>
      <text dy=".8em" transform="translate(864,6)">
       4
      </text>
     </g>
    </g>
    <g>
     <path d="M0,0v640M36,640h-36m36,-80h-36m36,-80h-36m36,-80h-36m36,-80h-36m36,-80h-36m36,-80h-36m36,-80h-36m18,-80h-18" style="stroke: black; stroke-width: 1;"></path>
     <g font-family="Arial" font-size="28" space="preserve" fill="black" text-anchor="end">
      <text dy=".4em" transform="translate(-4,600)">
       8
      </text>
      <text dy=".4em" transform="translate(-4,520)">
       32
      </text>
      <text dy=".4em" transform="translate(-4,440)">
       128
      </text>
      <text dy=".4em" transform="translate(-4,360)">
       512
      </text>
      <text dy=".4em" transform="translate(-4,280)">
       2048
      </text>
      <text dy=".4em" transform="translate(-4,200)">
       8192
      </text>
      <text dy=".4em" transform="translate(-4,120)">
       32768
      </text>
      <text dy=".4em" transform="translate(-4,40)">
       131072
      </text>
     </g>
    </g>
   </g>
  </g>
  <g transform="translate(190,4)" font-family="Arial" font-size="36" space="preserve">
   <text fill="black" text-anchor="middle" dy=".4em" transform="translate(411,22)">
    Option HBAR centered on 0
   </text>
  </g>
 </g>
</svg>

<svg xmlns="http://www.w3.org/2000/svg" viewBox="0 0 1200 800" preserveAspectRatio="none" width="1200" height="800">
 <path d="M0,0H1200V800H0Z" style="fill: white;"></path>
 <g>
  <g transform="translate(120,80)">
   <path d="M0,0H960V640H0Z" style="fill: white; stroke: black; stroke-width: 1;"></path>
   <g>
    <path d="M0,640h960M0,560h960M0,480h960M0,400h960M0,320h960M0,240h960M0,160h960M0,80h960M0,0h960" style="stroke: black; stroke-width: 1; stroke-dasharray: 1,2;"></path>
    <path d="M96,0v640M288,0v640M480,0v640M672,0v640M864,0v640" style="stroke: black; stroke-width: 1; stroke-dasharray: 1,2;"></path>
   </g>
   <svg x="0" y="0" overflow="hidden" width="960" height="640" viewBox="0 0 960 640">
    <g>
     <path d="M480,632h72v-32h-72zM480,552h-317v-32h317zM480,472h-88v-32h88zM480,392h10v-32h-10zM480,312h8v-32h-8zM480,232h-162v-32h162zM480,152h-124v-32h124zM480,72h-228v-32h228z" style="fill: blue;"></path>
    </g>
    <g>
     <path d="M480,600h97v-32h-97zM480,520h-290v-32h290zM480,440h-62v-32h62zM480,360h36v-32h-36zM480,280h33v-32h-33zM480,200h-136v-32h136zM480,120h-98v-32h98zM480,40h-202v-32h202z" style="fill: #7d99d1;"></path>
    </g>
   </svg>
   <g>
    <g transform="translate(0,640)">
     <path d="M0,0h960M0,-12V0M48,-12V0M96,-24V0M144,-12V0M192,-12V0M240,-12V0M288,-24V0M336,-12V0M384,-12V0M432,-12V0M480,-24V0M528,-12V0M576,-12V0M624,-12V0M672,-24V0M720,-12V0M768,-12V0M816,-12V0M864,-24V0M912,-12V0M960,-12V0" style="stroke: black; stroke-width: 1;"></path>
     <g font-family="Arial" font-size="28" space="preserve" fill="black" text-anchor="middle">
      <text dy=".8em" transform="translate(96,6)">
       -4
      </text>
      <text dy=".8em" transform="translate(288,6)">
       -2
      </text>
      <text dy=".8em" transform="translate(480,6)">
       0
      </text>
      <text dy=".8em" transform="translate(672,6)">
       2
      </text>
      <text dy=".8em" transform="translate(864,6)">
       4
      </text>
     </g>
    </g>
    <g>
     <path d="M0,0v640M36,640H0M36,560H0M36,480H0M36,400H0M36,320H0M36,240H0M36,160H0M36,80H0M18,0H0" style="stroke: black; stroke-width: 1;"></path>
     <g font-family="Arial" font-size="28" space="preserve" fill="black" text-anchor="end">
      <text dy=".4em" transform="translate(-4,600)">
       8
      </text>
      <text dy=".4em" transform="translate(-4,520)">
       32
      </text>
      <text dy=".4em" transform="translate(-4,440)">
       128
      </text>
      <text dy=".4em" transform="translate(-4,360)">
       512
      </text>
      <text dy=".4em" transform="translate(-4,280)">
       2048
      </text>
      <text dy=".4em" transform="translate(-4,200)">
       8192
      </text>
      <text dy=".4em" transform="translate(-4,120)">
       32768
      </text>
      <text dy=".4em" transform="translate(-4,40)">
       131072
      </text>
     </g>
    </g>
   </g>
  </g>
  <g transform="translate(190,4)" font-family="Arial" font-size="36" space="preserve">
   <text fill="black" text-anchor="middle" dy=".4em" transform="translate(411,22)">
    Option HBAR centered on 0
   </text>
  </g>
 </g>
</svg>
